src/lib/packages/icons/src/assets/line/flag-triangle.svg

<svg width="24" height="24" viewBox="0 0 24 24" fill="none" xmlns="http://www.w3.org/2000/svg">
<path d="M19.609 7.85693L7.75 3.47705V3C7.75 2.586 7.414 2.25 7 2.25C6.586 2.25 6.25 2.586 6.25 3V20.25H5C4.586 20.25 4.25 20.586 4.25 21C4.25 21.414 4.586 21.75 5 21.75H9C9.414 21.75 9.75 21.414 9.75 21C9.75 20.586 9.414 20.25 9 20.25H7.75V15.522L19.609 11.1421C20.302 10.8861 20.75 10.241 20.75 9.49902C20.75 8.75702 20.302 8.11393 19.609 7.85693ZM19.089 9.73511L7.75 13.9231V5.07593L19.089 9.26392C19.222 9.31292 19.25 9.41902 19.25 9.49902C19.25 9.57902 19.222 9.68711 19.089 9.73511Z" fill="currentColor"/>
</svg>

<svg xmlns="http://www.w3.org/2000/svg" width="24" height="24" fill="none"><path fill="currentColor" d="M19.609 7.857 7.75 3.477V3a.75.75 0 0 0-1.5 0v17.25H5a.75.75 0 0 0 0 1.5h4a.75.75 0 0 0 0-1.5H7.75v-4.728l11.859-4.38A1.735 1.735 0 0 0 20.75 9.5c0-.742-.448-1.385-1.141-1.642Zm-.52 1.878L7.75 13.923V5.076l11.339 4.188c.133.049.161.155.161.235 0 .08-.028.188-.161.236Z"/></svg>
